svgs/sharp-light/chart-column.svg

<svg xmlns="http://www.w3.org/2000/svg" viewBox="0 0 512 512"><!--! Font Awesome Pro 6.6.0 by @fontawesome - https://fontawesome.com License - https://fontawesome.com/license (Commercial License) Copyright 2024 Fonticons, Inc. --><path d="M32 32l0 16 0 400 464 0 16 0 0 32-16 0L16 480 0 480l0-16L0 48 0 32l32 0zM160 256l0 16 0 96 0 16-32 0 0-16 0-96 0-16 32 0zm96-112l0 224 0 16-32 0 0-16 0-224 0-16 32 0 0 16zm96 48l0 16 0 160 0 16-32 0 0-16 0-160 0-16 32 0zm96-80l0 256 0 16-32 0 0-16 0-256 0-16 32 0 0 16z"/></svg>

<svg xmlns="http://www.w3.org/2000/svg" viewBox="0 0 512 512"><!--! Font Awesome Pro 6.4.2 by @fontawesome - https://fontawesome.com License - https://fontawesome.com/license (Commercial License) Copyright 2023 Fonticons, Inc. --><path d="M32 32V48 448H496h16v32H496 16 0V464 48 32H32zM160 256v16 96 16H128V368 272 256h32zm96-112V368v16H224V368 144 128h32v16zm96 48v16V368v16H320V368 208 192h32zm96-80V368v16H416V368 112 96h32v16z"/></svg>
